OptiUniverse/Resources/LUT/sun_lut.cube
# LUT generated for OptiUniverse Sun
TITLE "OptiUniverse Sun LUT (Base v1)"
LUT_3D_SIZE 32
DOMAIN_MIN 0.0 0.0 0.0
DOMAIN_MAX 1.0 1.0 1.0
0.000000 0.000000 0.000000
0.000000 0.000000 0.172913
0.000000 0.000000 0.283607
0.000000 0.000000 0.372843
0.000000 0.000000 0.445765
0.000000 0.000000 0.505875
0.000000 0.000000 0.555846
0.000000 0.000000 0.597748
0.000000 0.000000 0.633190
0.000000 0.000000 0.663423
0.000000 0.000000 0.689423
0.000000 0.000000 0.711955
0.000000 0.000000 0.731622
0.000000 0.000000 0.748905
0.000000 0.000000 0.764187
0.000000 0.000000 0.777778
0.000000 0.000000 0.789931
0.000000 0.000000 0.800852
0.000000 0.000000 0.810712
0.000000 0.000000 0.819651
0.000000 0.000000 0.827787
0.000000 0.000000 0.835221
0.000000 0.000000 0.842037
0.000000 0.000000 0.848306
0.000000 0.000000 0.854089
0.000000 0.000000 0.859439
0.000000 0.000000 0.864402
0.000000 0.000000 0.869017
0.000000 0.000000 0.873318
0.000000 0.000000 0.877336
0.000000 0.000000 0.881097
0.000000 0.000000 0.884625
0.000000 0.180961 0.000000
0.000000 0.180961 0.172913
0.000000 0.180961 0.283607
0.000000 0.180961 0.372843
0.000000 0.180961 0.445765
0.000000 0.180961 0.505875
0.000000 0.180961 0.555846
0.000000 0.180961 0.597748
0.000000 0.180961 0.633190
0.000000 0.180961 0.663423
0.000000 0.180961 0.689423
0.000000 0.180961 0.711955
0.000000 0.180961 0.731622
0.000000 0.180961 0.748905
0.000000 0.180961 0.764187
0.000000 0.180961 0.777778
0.000000 0.180961 0.789931
0.000000 0.180961 0.800852
0.000000 0.180961 0.810712
0.000000 0.180961 0.819651
0.000000 0.180961 0.827787
0.000000 0.180961 0.835221
0.000000 0.180961 0.842037
0.000000 0.180961 0.848306
0.000000 0.180961 0.854089
0.000000 0.180961 0.859439
0.000000 0.180961 0.864402
0.000000 0.180961 0.869017
0.000000 0.180961 0.873318
0.000000 0.180961 0.877336
0.000000 0.180961 0.881097
0.000000 0.180961 0.884625
0.000000 0.296807 0.000000
0.000000 0.296807 0.172913
0.000000 0.296807 0.283607
0.000000 0.296807 0.372843
0.000000 0.296807 0.445765
0.000000 0.296807 0.505875
0.000000 0.296807 0.555846
0.000000 0.296807 0.597748
0.000000 0.296807 0.633190
0.000000 0.296807 0.663423
0.000000 0.296807 0.689423
0.000000 0.296807 0.711955
0.000000 0.296807 0.731622
0.000000 0.296807 0.748905
0.000000 0.296807 0.764187
0.000000 0.296807 0.777778
0.000000 0.296807 0.789931
0.000000 0.296807 0.800852
0.000000 0.296807 0.810712
0.000000 0.296807 0.819651
0.000000 0.296807 0.827787
0.000000 0.296807 0.835221
0.000000 0.296807 0.842037
0.000000 0.296807 0.848306
0.000000 0.296807 0.854089
0.000000 0.296807 0.859439
0.000000 0.296807 0.864402
0.000000 0.296807 0.869017
0.000000 0.296807 0.873318
0.000000 0.296807 0.877336
0.000000 0.296807 0.881097
0.000000 0.296807 0.884625
0.000000 0.390196 0.000000
0.000000 0.390196 0.172913
0.000000 0.390196 0.283607
0.000000 0.390196 0.372843
0.000000 0.390196 0.445765
0.000000 0.390196 0.505875
0.000000 0.390196 0.555846
0.000000 0.390196 0.597748
0.000000 0.390196 0.633190
0.000000 0.390196 0.663423
0.000000 0.390196 0.689423
0.000000 0.390196 0.711955
0.000000 0.390196 0.731622
0.000000 0.390196 0.748905
0.000000 0.390196 0.764187
0.000000 0.390196 0.777778
0.000000 0.390196 0.789931
0.000000 0.390196 0.800852
0.000000 0.390196 0.810712
0.000000 0.390196 0.819651
0.000000 0.390196 0.827787
0.000000 0.390196 0.835221
0.000000 0.390196 0.842037
0.000000 0.390196 0.848306
0.000000 0.390196 0.854089
0.000000 0.390196 0.859439
0.000000 0.390196 0.864402
0.000000 0.390196 0.869017
0.000000 0.390196 0.873318
0.000000 0.390196 0.877336
0.000000 0.390196 0.881097
0.000000 0.390196 0.884625
0.000000 0.466512 0.000000
0.000000 0.466512 0.172913
0.000000 0.466512 0.283607
0.000000 0.466512 0.372843
0.000000 0.466512 0.445765
0.000000 0.466512 0.505875
0.000000 0.466512 0.555846
0.000000 0.466512 0.597748
0.000000 0.466512 0.633190
0.000000 0.466512 0.663423
0.000000 0.466512 0.689423
0.000000 0.466512 0.711955
0.000000 0.466512 0.731622
0.000000 0.466512 0.748905
0.000000 0.466512 0.764187
0.000000 0.466512 0.777778
0.000000 0.466512 0.789931
0.000000 0.466512 0.800852
0.000000 0.466512 0.810712
0.000000 0.466512 0.819651
0.000000 0.466512 0.827787
0.000000 0.466512 0.835221
0.000000 0.466512 0.842037
0.000000 0.466512 0.848306
0.000000 0.466512 0.854089
0.000000 0.466512 0.859439
0.000000 0.466512 0.864402
0.000000 0.466512 0.869017
0.000000 0.466512 0.873318
0.000000 0.466512 0.877336
0.000000 0.466512 0.881097
0.000000 0.466512 0.884625
0.000000 0.529420 0.000000
0.000000 0.529420 0.172913
0.000000 0.529420 0.283607
0.000000 0.529420 0.372843
0.000000 0.529420 0.445765
0.000000 0.529420 0.505875
0.000000 0.529420 0.555846
0.000000 0.529420 0.597748
0.000000 0.529420 0.633190
0.000000 0.529420 0.663423
0.000000 0.529420 0.689423
0.000000 0.529420 0.711955
0.000000 0.529420 0.731622
0.000000 0.529420 0.748905
0.000000 0.529420 0.764187
0.000000 0.529420 0.777778
0.000000 0.529420 0.789931
0.000000 0.529420 0.800852
0.000000 0.529420 0.810712
0.000000 0.529420 0.819651
0.000000 0.529420 0.827787
0.000000 0.529420 0.835221
0.000000 0.529420 0.842037
0.000000 0.529420 0.848306
0.000000 0.529420 0.854089
0.000000 0.529420 0.859439
0.000000 0.529420 0.864402
0.000000 0.529420 0.869017
0.000000 0.529420 0.873318
0.000000 0.529420 0.877336
0.000000 0.529420 0.881097
0.000000 0.529420 0.884625
0.000000 0.581716 0.000000
0.000000 0.581716 0.172913
0.000000 0.581716 0.283607
0.000000 0.581716 0.372843
0.000000 0.581716 0.445765
0.000000 0.581716 0.505875
0.000000 0.581716 0.555846
0.000000 0.581716 0.597748
0.000000 0.581716 0.633190
0.000000 0.581716 0.663423
0.000000 0.581716 0.689423
0.000000 0.581716 0.711955
0.000000 0.581716 0.731622
0.000000 0.581716 0.748905
0.000000 0.581716 0.764187
0.000000 0.581716 0.777778
0.000000 0.581716 0.789931
0.000000 0.581716 0.800852
0.000000 0.581716 0.810712
0.000000 0.581716 0.819651
0.000000 0.581716 0.827787
0.000000 0.581716 0.835221
0.000000 0.581716 0.842037
0.000000 0.581716 0.848306
0.000000 0.581716 0.854089
0.000000 0.581716 0.859439
0.000000 0.581716 0.864402
0.000000 0.581716 0.869017
0.000000 0.581716 0.873318
0.000000 0.581716 0.877336
0.000000 0.581716 0.881097
0.000000 0.581716 0.884625
0.000000 0.625569 0.000000
0.000000 0.625569 0.172913
0.000000 0.625569 0.283607
0.000000 0.625569 0.372843
0.000000 0.625569 0.445765
0.000000 0.625569 0.505875
0.000000 0.625569 0.555846
0.000000 0.625569 0.597748
0.000000 0.625569 0.633190
0.000000 0.625569 0.663423
0.000000 0.625569 0.689423
0.000000 0.625569 0.711955
0.000000 0.625569 0.731622
0.000000 0.625569 0.748905
0.000000 0.625569 0.764187
0.000000 0.625569 0.777778
0.000000 0.625569 0.789931
0.000000 0.625569 0.800852
0.000000 0.625569 0.810712
0.000000 0.625569 0.819651
0.000000 0.625569 0.827787
0.000000 0.625569 0.835221
0.000000 0.625569 0.842037
0.000000 0.625569 0.848306
0.000000 0.625569 0.854089
0.000000 0.625569 0.859439
0.000000 0.625569 0.864402
0.000000 0.625569 0.869017
0.000000 0.625569 0.873318
0.000000 0.625569 0.877336
0.000000 0.625569 0.881097
0.000000 0.625569 0.884625
0.000000 0.662661 0.000000
0.000000 0.662661 0.172913
0.000000 0.662661 0.283607
0.000000 0.662661 0.372843
0.000000 0.662661 0.445765
0.000000 0.662661 0.505875
0.000000 0.662661 0.555846
0.000000 0.662661 0.597748
0.000000 0.662661 0.633190
0.000000 0.662661 0.663423
0.000000 0.662661 0.689423
0.000000 0.662661 0.711955
0.000000 0.662661 0.731622
0.000000 0.662661 0.748905
0.000000 0.662661 0.764187
0.000000 0.662661 0.777778
0.000000 0.662661 0.789931
0.000000 0.662661 0.800852
0.000000 0.662661 0.810712
0.000000 0.662661 0.819651
0.000000 0.662661 0.827787
0.000000 0.662661 0.835221
0.000000 0.662661 0.842037
0.000000 0.662661 0.848306
0.000000 0.662661 0.854089
0.000000 0.662661 0.859439
0.000000 0.662661 0.864402
0.000000 0.662661 0.869017
0.000000 0.662661 0.873318
0.000000 0.662661 0.877336
0.000000 0.662661 0.881097
0.000000 0.662661 0.884625
0.000000 0.694301 0.000000
0.000000 0.694301 0.172913
0.000000 0.694301 0.283607
0.000000 0.694301 0.372843
0.000000 0.694301 0.445765
0.000000 0.694301 0.505875
0.000000 0.694301 0.555846
0.000000 0.694301 0.597748
0.000000 0.694301 0.633190
0.000000 0.694301 0.663423
0.000000 0.694301 0.689423
0.000000 0.694301 0.711955
0.000000 0.694301 0.731622
0.000000 0.694301 0.748905
0.000000 0.694301 0.764187
0.000000 0.694301 0.777778
0.000000 0.694301 0.789931
0.000000 0.694301 0.800852
0.000000 0.694301 0.810712
0.000000 0.694301 0.819651
0.000000 0.694301 0.827787
0.000000 0.694301 0.835221
0.000000 0.694301 0.842037
0.000000 0.694301 0.848306
0.000000 0.694301 0.854089
0.000000 0.694301 0.859439
0.000000 0.694301 0.864402
0.000000 0.694301 0.869017
0.000000 0.694301 0.873318
0.000000 0.694301 0.877336
0.000000 0.694301 0.881097
0.000000 0.694301 0.884625
0.000000 0.721511 0.000000
0.000000 0.721511 0.172913
0.000000 0.721511 0.283607
0.000000 0.721511 0.372843
0.000000 0.721511 0.445765
0.000000 0.721511 0.505875
0.000000 0.721511 0.555846
0.000000 0.721511 0.597748
0.000000 0.721511 0.633190
0.000000 0.721511 0.663423
0.000000 0.721511 0.689423
0.000000 0.721511 0.711955
0.000000 0.721511 0.731622
0.000000 0.721511 0.748905
0.000000 0.721511 0.764187
0.000000 0.721511 0.777778
0.000000 0.721511 0.789931
0.000000 0.721511 0.800852
0.000000 0.721511 0.810712
0.000000 0.721511 0.819651
0.000000 0.721511 0.827787
0.000000 0.721511 0.835221
0.000000 0.721511 0.842037
0.000000 0.721511 0.848306
0.000000 0.721511 0.854089
0.000000 0.721511 0.859439
0.000000 0.721511 0.864402
0.000000 0.721511 0.869017
0.000000 0.721511 0.873318
0.000000 0.721511 0.877336
0.000000 0.721511 0.881097
0.000000 0.721511 0.884625
0.000000 0.745091 0.000000
0.000000 0.745091 0.172913
0.000000 0.745091 0.283607
0.000000 0.745091 0.372843
0.000000 0.745091 0.445765
0.000000 0.745091 0.505875
0.000000 0.745091 0.555846
0.000000 0.745091 0.597748
0.000000 0.745091 0.633190
0.000000 0.745091 0.663423
0.000000 0.745091 0.689423
0.000000 0.745091 0.711955
0.000000 0.745091 0.731622
0.000000 0.745091 0.748905
0.000000 0.745091 0.764187
0.000000 0.745091 0.777778
0.000000 0.745091 0.789931
0.000000 0.745091 0.800852
0.000000 0.745091 0.810712
0.000000 0.745091 0.819651
0.000000 0.745091 0.827787
0.000000 0.745091 0.835221
0.000000 0.745091 0.842037
0.000000 0.745091 0.848306
0.000000 0.745091 0.854089
0.000000 0.745091 0.859439
0.000000 0.745091 0.864402
0.000000 0.745091 0.869017
0.000000 0.745091 0.873318
0.000000 0.745091 0.877336
0.000000 0.745091 0.881097
0.000000 0.745091 0.884625
0.000000 0.765674 0.000000
0.000000 0.765674 0.172913
0.000000 0.765674 0.283607
0.000000 0.765674 0.372843
0.000000 0.765674 0.445765
0.000000 0.765674 0.505875
0.000000 0.765674 0.555846
0.000000 0.765674 0.597748
0.000000 0.765674 0.633190
0.000000 0.765674 0.663423
0.000000 0.765674 0.689423
0.000000 0.765674 0.711955
0.000000 0.765674 0.731622
0.000000 0.765674 0.748905
0.000000 0.765674 0.764187
0.000000 0.765674 0.777778
0.000000 0.765674 0.789931
0.000000 0.765674 0.800852
0.000000 0.765674 0.810712
0.000000 0.765674 0.819651
0.000000 0.765674 0.827787
0.000000 0.765674 0.835221
0.000000 0.765674 0.842037
0.000000 0.765674 0.848306
0.000000 0.765674 0.854089
0.000000 0.765674 0.859439
0.000000 0.765674 0.864402
0.000000 0.765674 0.869017
0.000000 0.765674 0.873318
0.000000 0.765674 0.877336
0.000000 0.765674 0.881097
0.000000 0.765674 0.884625
0.000000 0.783761 0.000000
0.000000 0.783761 0.172913
0.000000 0.783761 0.283607
0.000000 0.783761 0.372843
0.000000 0.783761 0.445765
0.000000 0.783761 0.505875
0.000000 0.783761 0.555846
0.000000 0.783761 0.597748
0.000000 0.783761 0.633190
0.000000 0.783761 0.663423
0.000000 0.783761 0.689423
0.000000 0.783761 0.711955
0.000000 0.783761 0.731622
0.000000 0.783761 0.748905
0.000000 0.783761 0.764187
0.000000 0.783761 0.777778
0.000000 0.783761 0.789931
0.000000 0.783761 0.800852
0.000000 0.783761 0.810712
0.000000 0.783761 0.819651
0.000000 0.783761 0.827787
0.000000 0.783761 0.835221
0.000000 0.783761 0.842037
0.000000 0.783761 0.848306
0.000000 0.783761 0.854089
0.000000 0.783761 0.859439
0.000000 0.783761 0.864402
0.000000 0.783761 0.869017
0.000000 0.783761 0.873318
0.000000 0.783761 0.877336
0.000000 0.783761 0.881097
0.000000 0.783761 0.884625
0.000000 0.799754 0.000000
0.000000 0.799754 0.172913
0.000000 0.799754 0.283607
0.000000 0.799754 0.372843
0.000000 0.799754 0.445765
0.000000 0.799754 0.505875
0.000000 0.799754 0.555846
0.000000 0.799754 0.597748
0.000000 0.799754 0.633190
0.000000 0.799754 0.663423
0.000000 0.799754 0.689423
0.000000 0.799754 0.711955
0.000000 0.799754 0.731622
0.000000 0.799754 0.748905
0.000000 0.799754 0.764187
0.000000 0.799754 0.777778
0.000000 0.799754 0.789931
0.000000 0.799754 0.800852
0.000000 0.799754 0.810712
0.000000 0.799754 0.819651
0.000000 0.799754 0.827787
0.000000 0.799754 0.835221
0.000000 0.799754 0.842037
0.000000 0.799754 0.848306
0.000000 0.799754 0.854089
0.000000 0.799754 0.859439
0.000000 0.799754 0.864402
0.000000 0.799754 0.869017
0.000000 0.799754 0.873318
0.000000 0.799754 0.877336
0.000000 0.799754 0.881097
0.000000 0.799754 0.884625
0.000000 0.813979 0.000000
0.000000 0.813979 0.172913
0.000000 0.813979 0.283607
0.000000 0.813979 0.372843
0.000000 0.813979 0.445765
0.000000 0.813979 0.505875
0.000000 0.813979 0.555846
0.000000 0.813979 0.597748
0.000000 0.813979 0.633190
0.000000 0.813979 0.663423
0.000000 0.813979 0.689423
0.000000 0.813979 0.711955
0.000000 0.813979 0.731622
0.000000 0.813979 0.748905
0.000000 0.813979 0.764187
0.000000 0.813979 0.777778
0.000000 0.813979 0.789931
0.000000 0.813979 0.800852
0.000000 0.813979 0.810712
0.000000 0.813979 0.819651
0.000000 0.813979 0.827787
0.000000 0.813979 0.835221
0.000000 0.813979 0.842037
0.000000 0.813979 0.848306
0.000000 0.813979 0.854089
0.000000 0.813979 0.859439
0.000000 0.813979 0.864402
0.000000 0.813979 0.869017
0.000000 0.813979 0.873318
0.000000 0.813979 0.877336
0.000000 0.813979 0.881097
0.000000 0.813979 0.884625
0.000000 0.826697 0.000000
0.000000 0.826697 0.172913
0.000000 0.826697 0.283607
0.000000 0.826697 0.372843
0.000000 0.826697 0.445765
0.000000 0.826697 0.505875
0.000000 0.826697 0.555846
0.000000 0.826697 0.597748
0.000000 0.826697 0.633190
0.000000 0.826697 0.663423
0.000000 0.826697 0.689423
0.000000 0.826697 0.711955
0.000000 0.826697 0.731622
0.000000 0.826697 0.748905
0.000000 0.826697 0.764187
0.000000 0.826697 0.777778
0.000000 0.826697 0.789931
0.000000 0.826697 0.800852
0.000000 0.826697 0.810712
0.000000 0.826697 0.819651
0.000000 0.826697 0.827787
0.000000 0.826697 0.835221
0.000000 0.826697 0.842037
0.000000 0.826697 0.848306
0.000000 0.826697 0.854089
0.000000 0.826697 0.859439
0.000000 0.826697 0.864402
0.000000 0.826697 0.869017
0.000000 0.826697 0.873318
0.000000 0.826697 0.877336
0.000000 0.826697 0.881097
0.000000 0.826697 0.884625
0.000000 0.838127 0.000000
0.000000 0.838127 0.172913
0.000000 0.838127 0.283607
0.000000 0.838127 0.372843
0.000000 0.838127 0.445765
0.000000 0.838127 0.505875
0.000000 0.838127 0.555846
0.000000 0.838127 0.597748
0.000000 0.838127 0.633190
0.000000 0.838127 0.663423
0.000000 0.838127 0.689423
0.000000 0.838127 0.711955
0.000000 0.838127 0.731622
0.000000 0.838127 0.748905
0.000000 0.838127 0.764187
0.000000 0.838127 0.777778
0.000000 0.838127 0.789931
0.000000 0.838127 0.800852
0.000000 0.838127 0.810712
0.000000 0.838127 0.819651
0.000000 0.838127 0.827787
0.000000 0.838127 0.835221
0.000000 0.838127 0.842037
0.000000 0.838127 0.848306
0.000000 0.838127 0.854089
0.000000 0.838127 0.859439
0.000000 0.838127 0.864402
0.000000 0.838127 0.869017
0.000000 0.838127 0.873318
0.000000 0.838127 0.877336
0.000000 0.838127 0.881097
0.000000 0.838127 0.884625
0.000000 0.848445 0.000000
0.000000 0.848445 0.172913
0.000000 0.848445 0.283607
0.000000 0.848445 0.372843
0.000000 0.848445 0.445765
0.000000 0.848445 0.505875
0.000000 0.848445 0.555846
0.000000 0.848445 0.597748
0.000000 0.848445 0.633190
0.000000 0.848445 0.663423
0.000000 0.848445 0.689423
0.000000 0.848445 0.711955
0.000000 0.848445 0.731622
0.000000 0.848445 0.748905
0.000000 0.848445 0.764187
0.000000 0.848445 0.777778
0.000000 0.848445 0.789931
0.000000 0.848445 0.800852
0.000000 0.848445 0.810712
0.000000 0.848445 0.819651
0.000000 0.848445 0.827787
0.000000 0.848445 0.835221
0.000000 0.848445 0.842037
0.000000 0.848445 0.848306
0.000000 0.848445 0.854089
0.000000 0.848445 0.859439
0.000000 0.848445 0.864402
0.000000 0.848445 0.869017
0.000000 0.848445 0.873318
0.000000 0.848445 0.877336
0.000000 0.848445 0.881097
0.000000 0.848445 0.884625
0.000000 0.857800 0.000000
0.000000 0.857800 0.172913
0.000000 0.857800 0.283607
0.000000 0.857800 0.372843
0.000000 0.857800 0.445765
0.000000 0.857800 0.505875
0.000000 0.857800 0.555846
0.000000 0.857800 0.597748
0.000000 0.857800 0.633190
0.000000 0.857800 0.663423
0.000000 0.857800 0.689423
0.000000 0.857800 0.711955
0.000000 0.857800 0.731622
0.000000 0.857800 0.748905
0.000000 0.857800 0.764187
0.000000 0.857800 0.777778
0.000000 0.857800 0.789931
0.000000 0.857800 0.800852
0.000000 0.857800 0.810712
0.000000 0.857800 0.819651
0.000000 0.857800 0.827787
0.000000 0.857800 0.835221
0.000000 0.857800 0.842037
0.000000 0.857800 0.848306
0.000000 0.857800 0.854089
0.000000 0.857800 0.859439
0.000000 0.857800 0.864402
0.000000 0.857800 0.869017
0.000000 0.857800 0.873318
0.000000 0.857800 0.877336
0.000000 0.857800 0.881097
0.000000 0.857800 0.884625
0.000000 0.866315 0.000000
0.000000 0.866315 0.172913
0.000000 0.866315 0.283607
0.000000 0.866315 0.372843
0.000000 0.866315 0.445765
0.000000 0.866315 0.505875
0.000000 0.866315 0.555846
0.000000 0.866315 0.597748
0.000000 0.866315 0.633190
0.000000 0.866315 0.663423
0.000000 0.866315 0.689423
0.000000 0.866315 0.711955
0.000000 0.866315 0.731622
0.000000 0.866315 0.748905
0.000000 0.866315 0.764187
0.000000 0.866315 0.777778
0.000000 0.866315 0.789931
0.000000 0.866315 0.800852
0.000000 0.866315 0.810712
0.000000 0.866315 0.819651
0.000000 0.866315 0.827787
0.000000 0.866315 0.835221
0.000000 0.866315 0.842037
0.000000 0.866315 0.848306
0.000000 0.866315 0.854089
0.000000 0.866315 0.859439
0.000000 0.866315 0.864402
0.000000 0.866315 0.869017
0.000000 0.866315 0.873318
0.000000 0.866315 0.877336
0.000000 0.866315 0.881097
0.000000 0.866315 0.884625
0.000000 0.874095 0.000000
0.000000 0.874095 0.172913
0.000000 0.874095 0.283607
0.000000 0.874095 0.372843
0.000000 0.874095 0.445765
0.000000 0.874095 0.505875
0.000000 0.874095 0.555846
0.000000 0.874095 0.597748
0.000000 0.874095 0.633190
0.000000 0.874095 0.663423
0.000000 0.874095 0.689423
0.000000 0.874095 0.711955
0.000000 0.874095 0.731622
0.000000 0.874095 0.748905
0.000000 0.874095 0.764187
0.000000 0.874095 0.777778
0.000000 0.874095 0.789931
0.000000 0.874095 0.800852
0.000000 0.874095 0.810712
0.000000 0.874095 0.819651
0.000000 0.874095 0.827787
0.000000 0.874095 0.835221
0.000000 0.874095 0.842037
0.000000 0.874095 0.848306
0.000000 0.874095 0.854089
0.000000 0.874095 0.859439
0.000000 0.874095 0.864402
0.000000 0.874095 0.869017
0.000000 0.874095 0.873318
0.000000 0.874095 0.877336
0.000000 0.874095 0.881097
0.000000 0.874095 0.884625
0.000000 0.881228 0.000000
0.000000 0.881228 0.172913
0.000000 0.881228 0.283607
0.000000 0.881228 0.372843
0.000000 0.881228 0.445765
0.000000 0.881228 0.505875
0.000000 0.881228 0.555846
0.000000 0.881228 0.597748
0.000000 0.881228 0.633190
0.000000 0.881228 0.663423
0.000000 0.881228 0.689423
0.000000 0.881228 0.711955
0.000000 0.881228 0.731622
0.000000 0.881228 0.748905
0.000000 0.881228 0.764187
0.000000 0.881228 0.777778
0.000000 0.881228 0.789931
0.000000 0.881228 0.800852
0.000000 0.881228 0.810712
0.000000 0.881228 0.819651
0.000000 0.881228 0.827787
0.000000 0.881228 0.835221
0.000000 0.881228 0.842037
0.000000 0.881228 0.848306
0.000000 0.881228 0.854089
0.000000 0.881228 0.859439
0.000000 0.881228 0.864402
0.000000 0.881228 0.869017
0.000000 0.881228 0.873318
0.000000 0.881228 0.877336
0.000000 0.881228 0.881097
0.000000 0.881228 0.884625
0.000000 0.887788 0.000000
0.000000 0.887788 0.172913
0.000000 0.887788 0.283607
0.000000 0.887788 0.372843
0.000000 0.887788 0.445765
0.000000 0.887788 0.505875
0.000000 0.887788 0.555846
0.000000 0.887788 0.597748
0.000000 0.887788 0.633190
0.000000 0.887788 0.663423
0.000000 0.887788 0.689423
0.000000 0.887788 0.711955
0.000000 0.887788 0.731622
0.000000 0.887788 0.748905
0.000000 0.887788 0.764187
0.000000 0.887788 0.777778
0.000000 0.887788 0.789931
0.000000 0.887788 0.800852
0.000000 0.887788 0.810712
0.000000 0.887788 0.819651
0.000000 0.887788 0.827787
0.000000 0.887788 0.835221
0.000000 0.887788 0.842037
0.000000 0.887788 0.848306
0.000000 0.887788 0.854089
0.000000 0.887788 0.859439
0.000000 0.887788 0.864402
0.000000 0.887788 0.869017
0.000000 0.887788 0.873318
0.000000 0.887788 0.877336
0.000000 0.887788 0.881097
0.000000 0.887788 0.884625
0.000000 0.893841 0.000000
0.000000 0.893841 0.172913
0.000000 0.893841 0.283607
0.000000 0.893841 0.372843
0.000000 0.893841 0.445765
0.000000 0.893841 0.505875
0.000000 0.893841 0.555846
0.000000 0.893841 0.597748
0.000000 0.893841 0.633190
0.000000 0.893841 0.663423
0.000000 0.893841 0.689423
0.000000 0.893841 0.711955
0.000000 0.893841 0.731622
0.000000 0.893841 0.748905
0.000000 0.893841 0.764187
0.000000 0.893841 0.777778
0.000000 0.893841 0.789931
0.000000 0.893841 0.800852
0.000000 0.893841 0.810712
0.000000 0.893841 0.819651
0.000000 0.893841 0.827787
0.000000 0.893841 0.835221
0.000000 0.893841 0.842037
0.000000 0.893841 0.848306
0.000000 0.893841 0.854089
0.000000 0.893841 0.859439
0.000000 0.893841 0.864402
0.000000 0.893841 0.869017
0.000000 0.893841 0.873318
0.000000 0.893841 0.877336
0.000000 0.893841 0.881097
0.000000 0.893841 0.884625
0.000000 0.899440 0.000000
0.000000 0.899440 0.172913
0.000000 0.899440 0.283607
0.000000 0.899440 0.372843
0.000000 0.899440 0.445765
0.000000 0.899440 0.505875
0.000000 0.899440 0.555846
0.000000 0.899440 0.597748
0.000000 0.899440 0.633190
0.000000 0.899440 0.663423
0.000000 0.899440 0.689423
0.000000 0.899440 0.711955
0.000000 0.899440 0.731622
0.000000 0.899440 0.748905
0.000000 0.899440 0.764187
0.000000 0.899440 0.777778
0.000000 0.899440 0.789931
0.000000 0.899440 0.800852
0.000000 0.899440 0.810712
0.000000 0.899440 0.819651
0.000000 0.899440 0.827787
0.000000 0.899440 0.835221
0.000000 0.899440 0.842037
0.000000 0.899440 0.848306
0.000000 0.899440 0.854089
0.000000 0.899440 0.859439
0.000000 0.899440 0.864402
0.000000 0.899440 0.869017
0.000000 0.899440 0.873318
0.000000 0.899440 0.877336
0.000000 0.899440 0.881097
0.000000 0.899440 0.884625
0.000000 0.904634 0.000000
0.000000 0.904634 0.172913
0.000000 0.904634 0.283607
0.000000 0.904634 0.372843
0.000000 0.904634 0.445765
0.000000 0.904634 0.505875
0.000000 0.904634 0.555846
0.000000 0.904634 0.597748
0.000000 0.904634 0.633190
0.000000 0.904634 0.663423
0.000000 0.904634 0.689423
0.000000 0.904634 0.711955
0.000000 0.904634 0.731622
0.000000 0.904634 0.748905
0.000000 0.904634 0.764187
0.000000 0.904634 0.777778
0.000000 0.904634 0.789931
0.000000 0.904634 0.800852
0.000000 0.904634 0.810712
0.000000 0.904634 0.819651
0.000000 0.904634 0.827787
0.000000 0.904634 0.835221
0.000000 0.904634 0.842037
0.000000 0.904634 0.848306
0.000000 0.904634 0.854089
0.000000 0.904634 0.859439
0.000000 0.904634 0.864402
0.000000 0.904634 0.869017
0.000000 0.904634 0.873318
0.000000 0.904634 0.877336
0.000000 0.904634 0.881097
0.000000 0.904634 0.884625
0.000000 0.909463 0.000000
0.000000 0.909463 0.172913
0.000000 0.909463 0.283607
0.000000 0.909463 0.372843
0.000000 0.909463 0.445765
0.000000 0.909463 0.505875
0.000000 0.909463 0.555846
0.000000 0.909463 0.597748
0.000000 0.909463 0.633190
0.000000 0.909463 0.663423
0.000000 0.909463 0.689423
0.000000 0.909463 0.711955
0.000000 0.909463 0.731622
0.000000 0.909463 0.748905
0.000000 0.909463 0.764187
0.000000 0.909463 0.777778
0.000000 0.909463 0.789931
0.000000 0.909463 0.800852
0.000000 0.909463 0.810712
