OptiUniverse/Resources/LUT/sun_lut.cube
# LUT generated for OptiUniverse Sun
TITLE "OptiUniverse Sun LUT (Base v1)"
LUT_3D_SIZE 5
DOMAIN_MIN 0.000000 0.000000 0.000000
DOMAIN_MAX 0.903226 0.903226 0.903226
0.000000 0.000000 0.000000
0.000000 0.000000 0.597748
0.000000 0.000000 0.764187
0.000000 0.000000 0.835221
0.000000 0.000000 0.873318
0.000000 0.625569 0.000000
0.000000 0.625569 0.597748
0.000000 0.625569 0.764187
0.000000 0.625569 0.835221
0.000000 0.625569 0.873318
0.000000 0.799754 0.000000
0.000000 0.799754 0.597748
0.000000 0.799754 0.764187
0.000000 0.799754 0.835221
0.000000 0.799754 0.873318
0.000000 0.874095 0.000000
0.000000 0.874095 0.597748
0.000000 0.874095 0.764187
0.000000 0.874095 0.835221
0.000000 0.874095 0.873318
0.000000 0.913965 0.000000
0.000000 0.913965 0.597748
0.000000 0.913965 0.764187
0.000000 0.913965 0.835221
0.000000 0.913965 0.873318
0.638938 0.000000 0.000000
0.638938 0.000000 0.597748
0.638938 0.000000 0.764187
0.638938 0.000000 0.835221
0.638938 0.000000 0.873318
0.638938 0.625569 0.000000
0.638938 0.625569 0.597748
0.638938 0.625569 0.764187
0.638938 0.625569 0.835221
0.638938 0.625569 0.873318
0.638938 0.799754 0.000000
0.638938 0.799754 0.597748
0.638938 0.799754 0.764187
0.638938 0.799754 0.835221
0.638938 0.799754 0.873318
0.638938 0.874095 0.000000
0.638938 0.874095 0.597748
0.638938 0.874095 0.764187
0.638938 0.874095 0.835221
0.638938 0.874095 0.873318
0.638938 0.913965 0.000000
0.638938 0.913965 0.597748
0.638938 0.913965 0.764187
0.638938 0.913965 0.835221
0.638938 0.913965 0.873318
0.816846 0.000000 0.000000
0.816846 0.000000 0.597748
0.816846 0.000000 0.764187
0.816846 0.000000 0.835221
0.816846 0.000000 0.873318
0.816846 0.625569 0.000000
0.816846 0.625569 0.597748
0.816846 0.625569 0.764187
0.816846 0.625569 0.835221
0.816846 0.625569 0.873318
0.816846 0.799754 0.000000
0.816846 0.799754 0.597748
0.816846 0.799754 0.764187
0.816846 0.799754 0.835221
0.816846 0.799754 0.873318
0.816846 0.874095 0.000000
0.816846 0.874095 0.597748
0.816846 0.874095 0.764187
0.816846 0.874095 0.835221
0.816846 0.874095 0.873318
0.816846 0.913965 0.000000
0.816846 0.913965 0.597748
0.816846 0.913965 0.764187
0.816846 0.913965 0.835221
0.816846 0.913965 0.873318
0.892775 0.000000 0.000000
0.892775 0.000000 0.597748
0.892775 0.000000 0.764187
0.892775 0.000000 0.835221
0.892775 0.000000 0.873318
0.892775 0.625569 0.000000
0.892775 0.625569 0.597748
0.892775 0.625569 0.764187
0.892775 0.625569 0.835221
0.892775 0.625569 0.873318
0.892775 0.799754 0.000000
0.892775 0.799754 0.597748
0.892775 0.799754 0.764187
0.892775 0.799754 0.835221
0.892775 0.799754 0.873318
0.892775 0.874095 0.000000
0.892775 0.874095 0.597748
0.892775 0.874095 0.764187
0.892775 0.874095 0.835221
0.892775 0.874095 0.873318
0.892775 0.913965 0.000000
0.892775 0.913965 0.597748
0.892775 0.913965 0.764187
0.892775 0.913965 0.835221
0.892775 0.913965 0.873318
0.933497 0.000000 0.000000
0.933497 0.000000 0.597748
0.933497 0.000000 0.764187
0.933497 0.000000 0.835221
0.933497 0.000000 0.873318
0.933497 0.625569 0.000000
0.933497 0.625569 0.597748
0.933497 0.625569 0.764187
0.933497 0.625569 0.835221
0.933497 0.625569 0.873318
0.933497 0.799754 0.000000
0.933497 0.799754 0.597748
0.933497 0.799754 0.764187
0.933497 0.799754 0.835221
0.933497 0.799754 0.873318
0.933497 0.874095 0.000000
0.933497 0.874095 0.597748
0.933497 0.874095 0.764187
0.933497 0.874095 0.835221
0.933497 0.874095 0.873318
0.933497 0.913965 0.000000
0.933497 0.913965 0.597748
0.933497 0.913965 0.764187
0.933497 0.913965 0.835221
0.933497 0.913965 0.873318
