OptiUniverse/Resources/LUT/sun_lut.cube
# LUT generated for OptiUniverse Sun
TITLE "OptiUniverse Sun LUT (Base v1)"
LUT_3D_SIZE 8
DOMAIN_MIN 0.000000 0.000000 0.000000
DOMAIN_MAX 0.903226 0.903226 0.903226
0.000000 0.000000 0.000000
0.000000 0.000000 0.445765
0.000000 0.000000 0.633190
0.000000 0.000000 0.731622
0.000000 0.000000 0.789931
0.000000 0.000000 0.827787
0.000000 0.000000 0.854089
0.000000 0.000000 0.873318
0.000000 0.466512 0.000000
0.000000 0.466512 0.445765
0.000000 0.466512 0.633190
0.000000 0.466512 0.731622
0.000000 0.466512 0.789931
0.000000 0.466512 0.827787
0.000000 0.466512 0.854089
0.000000 0.466512 0.873318
0.000000 0.662661 0.000000
0.000000 0.662661 0.445765
0.000000 0.662661 0.633190
0.000000 0.662661 0.731622
0.000000 0.662661 0.789931
0.000000 0.662661 0.827787
0.000000 0.662661 0.854089
0.000000 0.662661 0.873318
0.000000 0.765674 0.000000
0.000000 0.765674 0.445765
0.000000 0.765674 0.633190
0.000000 0.765674 0.731622
0.000000 0.765674 0.789931
0.000000 0.765674 0.827787
0.000000 0.765674 0.854089
0.000000 0.765674 0.873318
0.000000 0.826697 0.000000
0.000000 0.826697 0.445765
0.000000 0.826697 0.633190
0.000000 0.826697 0.731622
0.000000 0.826697 0.789931
0.000000 0.826697 0.827787
0.000000 0.826697 0.854089
0.000000 0.826697 0.873318
0.000000 0.866315 0.000000
0.000000 0.866315 0.445765
0.000000 0.866315 0.633190
0.000000 0.866315 0.731622
0.000000 0.866315 0.789931
0.000000 0.866315 0.827787
0.000000 0.866315 0.854089
0.000000 0.866315 0.873318
0.000000 0.893841 0.000000
0.000000 0.893841 0.445765
0.000000 0.893841 0.633190
0.000000 0.893841 0.731622
0.000000 0.893841 0.789931
0.000000 0.893841 0.827787
0.000000 0.893841 0.854089
0.000000 0.893841 0.873318
0.000000 0.913965 0.000000
0.000000 0.913965 0.445765
0.000000 0.913965 0.633190
0.000000 0.913965 0.731622
0.000000 0.913965 0.789931
0.000000 0.913965 0.827787
0.000000 0.913965 0.854089
0.000000 0.913965 0.873318
0.476482 0.000000 0.000000
0.476482 0.000000 0.445765
0.476482 0.000000 0.633190
0.476482 0.000000 0.731622
0.476482 0.000000 0.789931
0.476482 0.000000 0.827787
0.476482 0.000000 0.854089
0.476482 0.000000 0.873318
0.476482 0.466512 0.000000
0.476482 0.466512 0.445765
0.476482 0.466512 0.633190
0.476482 0.466512 0.731622
0.476482 0.466512 0.789931
0.476482 0.466512 0.827787
0.476482 0.466512 0.854089
0.476482 0.466512 0.873318
0.476482 0.662661 0.000000
0.476482 0.662661 0.445765
0.476482 0.662661 0.633190
0.476482 0.662661 0.731622
0.476482 0.662661 0.789931
0.476482 0.662661 0.827787
0.476482 0.662661 0.854089
0.476482 0.662661 0.873318
0.476482 0.765674 0.000000
0.476482 0.765674 0.445765
0.476482 0.765674 0.633190
0.476482 0.765674 0.731622
0.476482 0.765674 0.789931
0.476482 0.765674 0.827787
0.476482 0.765674 0.854089
0.476482 0.765674 0.873318
0.476482 0.826697 0.000000
0.476482 0.826697 0.445765
0.476482 0.826697 0.633190
0.476482 0.826697 0.731622
0.476482 0.826697 0.789931
0.476482 0.826697 0.827787
0.476482 0.826697 0.854089
0.476482 0.826697 0.873318
0.476482 0.866315 0.000000
0.476482 0.866315 0.445765
0.476482 0.866315 0.633190
0.476482 0.866315 0.731622
0.476482 0.866315 0.789931
0.476482 0.866315 0.827787
0.476482 0.866315 0.854089
0.476482 0.866315 0.873318
0.476482 0.893841 0.000000
0.476482 0.893841 0.445765
0.476482 0.893841 0.633190
0.476482 0.893841 0.731622
0.476482 0.893841 0.789931
0.476482 0.893841 0.827787
0.476482 0.893841 0.854089
0.476482 0.893841 0.873318
0.476482 0.913965 0.000000
0.476482 0.913965 0.445765
0.476482 0.913965 0.633190
0.476482 0.913965 0.731622
0.476482 0.913965 0.789931
0.476482 0.913965 0.827787
0.476482 0.913965 0.854089
0.476482 0.913965 0.873318
0.676822 0.000000 0.000000
0.676822 0.000000 0.445765
0.676822 0.000000 0.633190
0.676822 0.000000 0.731622
0.676822 0.000000 0.789931
0.676822 0.000000 0.827787
0.676822 0.000000 0.854089
0.676822 0.000000 0.873318
0.676822 0.466512 0.000000
0.676822 0.466512 0.445765
0.676822 0.466512 0.633190
0.676822 0.466512 0.731622
0.676822 0.466512 0.789931
0.676822 0.466512 0.827787
0.676822 0.466512 0.854089
0.676822 0.466512 0.873318
0.676822 0.662661 0.000000
0.676822 0.662661 0.445765
0.676822 0.662661 0.633190
0.676822 0.662661 0.731622
0.676822 0.662661 0.789931
0.676822 0.662661 0.827787
0.676822 0.662661 0.854089
0.676822 0.662661 0.873318
0.676822 0.765674 0.000000
0.676822 0.765674 0.445765
0.676822 0.765674 0.633190
0.676822 0.765674 0.731622
0.676822 0.765674 0.789931
0.676822 0.765674 0.827787
0.676822 0.765674 0.854089
0.676822 0.765674 0.873318
0.676822 0.826697 0.000000
0.676822 0.826697 0.445765
0.676822 0.826697 0.633190
0.676822 0.826697 0.731622
0.676822 0.826697 0.789931
0.676822 0.826697 0.827787
0.676822 0.826697 0.854089
0.676822 0.826697 0.873318
0.676822 0.866315 0.000000
0.676822 0.866315 0.445765
0.676822 0.866315 0.633190
0.676822 0.866315 0.731622
0.676822 0.866315 0.789931
0.676822 0.866315 0.827787
0.676822 0.866315 0.854089
0.676822 0.866315 0.873318
0.676822 0.893841 0.000000
0.676822 0.893841 0.445765
0.676822 0.893841 0.633190
0.676822 0.893841 0.731622
0.676822 0.893841 0.789931
0.676822 0.893841 0.827787
0.676822 0.893841 0.854089
0.676822 0.893841 0.873318
0.676822 0.913965 0.000000
0.676822 0.913965 0.445765
0.676822 0.913965 0.633190
0.676822 0.913965 0.731622
0.676822 0.913965 0.789931
0.676822 0.913965 0.827787
0.676822 0.913965 0.854089
0.676822 0.913965 0.873318
0.782037 0.000000 0.000000
0.782037 0.000000 0.445765
0.782037 0.000000 0.633190
0.782037 0.000000 0.731622
0.782037 0.000000 0.789931
0.782037 0.000000 0.827787
0.782037 0.000000 0.854089
0.782037 0.000000 0.873318
0.782037 0.466512 0.000000
0.782037 0.466512 0.445765
0.782037 0.466512 0.633190
0.782037 0.466512 0.731622
0.782037 0.466512 0.789931
0.782037 0.466512 0.827787
0.782037 0.466512 0.854089
0.782037 0.466512 0.873318
0.782037 0.662661 0.000000
0.782037 0.662661 0.445765
0.782037 0.662661 0.633190
0.782037 0.662661 0.731622
0.782037 0.662661 0.789931
0.782037 0.662661 0.827787
0.782037 0.662661 0.854089
0.782037 0.662661 0.873318
0.782037 0.765674 0.000000
0.782037 0.765674 0.445765
0.782037 0.765674 0.633190
0.782037 0.765674 0.731622
0.782037 0.765674 0.789931
0.782037 0.765674 0.827787
0.782037 0.765674 0.854089
0.782037 0.765674 0.873318
0.782037 0.826697 0.000000
0.782037 0.826697 0.445765
0.782037 0.826697 0.633190
0.782037 0.826697 0.731622
0.782037 0.826697 0.789931
0.782037 0.826697 0.827787
0.782037 0.826697 0.854089
0.782037 0.826697 0.873318
0.782037 0.866315 0.000000
0.782037 0.866315 0.445765
0.782037 0.866315 0.633190
0.782037 0.866315 0.731622
0.782037 0.866315 0.789931
0.782037 0.866315 0.827787
0.782037 0.866315 0.854089
0.782037 0.866315 0.873318
0.782037 0.893841 0.000000
0.782037 0.893841 0.445765
0.782037 0.893841 0.633190
0.782037 0.893841 0.731622
0.782037 0.893841 0.789931
0.782037 0.893841 0.827787
0.782037 0.893841 0.854089
0.782037 0.893841 0.873318
0.782037 0.913965 0.000000
0.782037 0.913965 0.445765
0.782037 0.913965 0.633190
0.782037 0.913965 0.731622
0.782037 0.913965 0.789931
0.782037 0.913965 0.827787
0.782037 0.913965 0.854089
0.782037 0.913965 0.873318
0.844364 0.000000 0.000000
0.844364 0.000000 0.445765
0.844364 0.000000 0.633190
0.844364 0.000000 0.731622
0.844364 0.000000 0.789931
0.844364 0.000000 0.827787
0.844364 0.000000 0.854089
0.844364 0.000000 0.873318
0.844364 0.466512 0.000000
0.844364 0.466512 0.445765
0.844364 0.466512 0.633190
0.844364 0.466512 0.731622
0.844364 0.466512 0.789931
0.844364 0.466512 0.827787
0.844364 0.466512 0.854089
0.844364 0.466512 0.873318
0.844364 0.662661 0.000000
0.844364 0.662661 0.445765
0.844364 0.662661 0.633190
0.844364 0.662661 0.731622
0.844364 0.662661 0.789931
0.844364 0.662661 0.827787
0.844364 0.662661 0.854089
0.844364 0.662661 0.873318
0.844364 0.765674 0.000000
0.844364 0.765674 0.445765
0.844364 0.765674 0.633190
0.844364 0.765674 0.731622
0.844364 0.765674 0.789931
0.844364 0.765674 0.827787
0.844364 0.765674 0.854089
0.844364 0.765674 0.873318
0.844364 0.826697 0.000000
0.844364 0.826697 0.445765
0.844364 0.826697 0.633190
0.844364 0.826697 0.731622
0.844364 0.826697 0.789931
0.844364 0.826697 0.827787
0.844364 0.826697 0.854089
0.844364 0.826697 0.873318
0.844364 0.866315 0.000000
0.844364 0.866315 0.445765
0.844364 0.866315 0.633190
0.844364 0.866315 0.731622
0.844364 0.866315 0.789931
0.844364 0.866315 0.827787
0.844364 0.866315 0.854089
0.844364 0.866315 0.873318
0.844364 0.893841 0.000000
0.844364 0.893841 0.445765
0.844364 0.893841 0.633190
0.844364 0.893841 0.731622
0.844364 0.893841 0.789931
0.844364 0.893841 0.827787
0.844364 0.893841 0.854089
0.844364 0.893841 0.873318
0.844364 0.913965 0.000000
0.844364 0.913965 0.445765
0.844364 0.913965 0.633190
0.844364 0.913965 0.731622
0.844364 0.913965 0.789931
0.844364 0.913965 0.827787
0.844364 0.913965 0.854089
0.844364 0.913965 0.873318
0.884829 0.000000 0.000000
0.884829 0.000000 0.445765
0.884829 0.000000 0.633190
0.884829 0.000000 0.731622
0.884829 0.000000 0.789931
0.884829 0.000000 0.827787
0.884829 0.000000 0.854089
0.884829 0.000000 0.873318
0.884829 0.466512 0.000000
0.884829 0.466512 0.445765
0.884829 0.466512 0.633190
0.884829 0.466512 0.731622
0.884829 0.466512 0.789931
0.884829 0.466512 0.827787
0.884829 0.466512 0.854089
0.884829 0.466512 0.873318
0.884829 0.662661 0.000000
0.884829 0.662661 0.445765
0.884829 0.662661 0.633190
0.884829 0.662661 0.731622
0.884829 0.662661 0.789931
0.884829 0.662661 0.827787
0.884829 0.662661 0.854089
0.884829 0.662661 0.873318
0.884829 0.765674 0.000000
0.884829 0.765674 0.445765
0.884829 0.765674 0.633190
0.884829 0.765674 0.731622
0.884829 0.765674 0.789931
0.884829 0.765674 0.827787
0.884829 0.765674 0.854089
0.884829 0.765674 0.873318
0.884829 0.826697 0.000000
0.884829 0.826697 0.445765
0.884829 0.826697 0.633190
0.884829 0.826697 0.731622
0.884829 0.826697 0.789931
0.884829 0.826697 0.827787
0.884829 0.826697 0.854089
0.884829 0.826697 0.873318
0.884829 0.866315 0.000000
0.884829 0.866315 0.445765
0.884829 0.866315 0.633190
0.884829 0.866315 0.731622
0.884829 0.866315 0.789931
0.884829 0.866315 0.827787
0.884829 0.866315 0.854089
0.884829 0.866315 0.873318
0.884829 0.893841 0.000000
0.884829 0.893841 0.445765
0.884829 0.893841 0.633190
0.884829 0.893841 0.731622
0.884829 0.893841 0.789931
0.884829 0.893841 0.827787
0.884829 0.893841 0.854089
0.884829 0.893841 0.873318
0.884829 0.913965 0.000000
0.884829 0.913965 0.445765
0.884829 0.913965 0.633190
0.884829 0.913965 0.731622
0.884829 0.913965 0.789931
0.884829 0.913965 0.827787
0.884829 0.913965 0.854089
0.884829 0.913965 0.873318
0.912943 0.000000 0.000000
0.912943 0.000000 0.445765
0.912943 0.000000 0.633190
0.912943 0.000000 0.731622
0.912943 0.000000 0.789931
0.912943 0.000000 0.827787
0.912943 0.000000 0.854089
0.912943 0.000000 0.873318
0.912943 0.466512 0.000000
0.912943 0.466512 0.445765
0.912943 0.466512 0.633190
0.912943 0.466512 0.731622
0.912943 0.466512 0.789931
0.912943 0.466512 0.827787
0.912943 0.466512 0.854089
0.912943 0.466512 0.873318
0.912943 0.662661 0.000000
0.912943 0.662661 0.445765
0.912943 0.662661 0.633190
0.912943 0.662661 0.731622
0.912943 0.662661 0.789931
0.912943 0.662661 0.827787
0.912943 0.662661 0.854089
0.912943 0.662661 0.873318
0.912943 0.765674 0.000000
0.912943 0.765674 0.445765
0.912943 0.765674 0.633190
0.912943 0.765674 0.731622
0.912943 0.765674 0.789931
0.912943 0.765674 0.827787
0.912943 0.765674 0.854089
0.912943 0.765674 0.873318
0.912943 0.826697 0.000000
0.912943 0.826697 0.445765
0.912943 0.826697 0.633190
0.912943 0.826697 0.731622
0.912943 0.826697 0.789931
0.912943 0.826697 0.827787
0.912943 0.826697 0.854089
0.912943 0.826697 0.873318
0.912943 0.866315 0.000000
0.912943 0.866315 0.445765
0.912943 0.866315 0.633190
0.912943 0.866315 0.731622
0.912943 0.866315 0.789931
0.912943 0.866315 0.827787
0.912943 0.866315 0.854089
0.912943 0.866315 0.873318
0.912943 0.893841 0.000000
0.912943 0.893841 0.445765
0.912943 0.893841 0.633190
0.912943 0.893841 0.731622
0.912943 0.893841 0.789931
0.912943 0.893841 0.827787
0.912943 0.893841 0.854089
0.912943 0.893841 0.873318
0.912943 0.913965 0.000000
0.912943 0.913965 0.445765
0.912943 0.913965 0.633190
0.912943 0.913965 0.731622
0.912943 0.913965 0.789931
0.912943 0.913965 0.827787
0.912943 0.913965 0.854089
0.912943 0.913965 0.873318
0.933497 0.000000 0.000000
0.933497 0.000000 0.445765
0.933497 0.000000 0.633190
0.933497 0.000000 0.731622
0.933497 0.000000 0.789931
0.933497 0.000000 0.827787
0.933497 0.000000 0.854089
0.933497 0.000000 0.873318
0.933497 0.466512 0.000000
0.933497 0.466512 0.445765
0.933497 0.466512 0.633190
0.933497 0.466512 0.731622
0.933497 0.466512 0.789931
0.933497 0.466512 0.827787
0.933497 0.466512 0.854089
0.933497 0.466512 0.873318
0.933497 0.662661 0.000000
0.933497 0.662661 0.445765
0.933497 0.662661 0.633190
0.933497 0.662661 0.731622
0.933497 0.662661 0.789931
0.933497 0.662661 0.827787
0.933497 0.662661 0.854089
0.933497 0.662661 0.873318
0.933497 0.765674 0.000000
0.933497 0.765674 0.445765
0.933497 0.765674 0.633190
0.933497 0.765674 0.731622
0.933497 0.765674 0.789931
0.933497 0.765674 0.827787
0.933497 0.765674 0.854089
0.933497 0.765674 0.873318
0.933497 0.826697 0.000000
0.933497 0.826697 0.445765
0.933497 0.826697 0.633190
0.933497 0.826697 0.731622
0.933497 0.826697 0.789931
0.933497 0.826697 0.827787
0.933497 0.826697 0.854089
0.933497 0.826697 0.873318
0.933497 0.866315 0.000000
0.933497 0.866315 0.445765
0.933497 0.866315 0.633190
0.933497 0.866315 0.731622
0.933497 0.866315 0.789931
0.933497 0.866315 0.827787
0.933497 0.866315 0.854089
0.933497 0.866315 0.873318
0.933497 0.893841 0.000000
0.933497 0.893841 0.445765
0.933497 0.893841 0.633190
0.933497 0.893841 0.731622
0.933497 0.893841 0.789931
0.933497 0.893841 0.827787
0.933497 0.893841 0.854089
0.933497 0.893841 0.873318
0.933497 0.913965 0.000000
0.933497 0.913965 0.445765
0.933497 0.913965 0.633190
0.933497 0.913965 0.731622
0.933497 0.913965 0.789931
0.933497 0.913965 0.827787
0.933497 0.913965 0.854089
0.933497 0.913965 0.873318
